X: 1
T: Piper's Wife, The
M: 3/4
L: 1/8
R: waltz
K: Gmaj
|:D2|G3A Bc|d2e2Ac|B2G2AG|F2D2D2|G3A Bc|d2e2Ac|B2G2G2|G4:|
ef|g2e3g|f2d2B2|e3cA2|G3FED|g2e2g2|f2d2A2|B2e3f|e4ef|
g2e2g2|f2d2B2|e3cA2|G3FED|GF GA Bc|d2e2Ac|B2G2G2|G2G2z2|
